packages/crs-framework/resources/svg/approved.svg

<svg width="24" height="24" viewBox="0 0 24 24" fill="none" xmlns="http://www.w3.org/2000/svg">
<path d="M22 12.5L19.7818 9.97571L20.0909 6.63714L16.8091 5.89524L15.0909 3L12 4.32095L8.90909 3L7.19091 5.88619L3.90909 6.61905L4.21818 9.96667L2 12.5L4.21818 15.0243L3.90909 18.3719L7.19091 19.1138L8.90909 22L12 20.67L15.0909 21.991L16.8091 19.1048L20.0909 18.3629L19.7818 15.0243L22 12.5ZM9.61818 16.1281L7.45455 13.9567C7.1 13.6038 7.1 13.0338 7.45455 12.681L7.51818 12.6176C7.87273 12.2648 8.45455 12.2648 8.80909 12.6176L10.2727 14.0833L14.9545 9.41476C15.3091 9.0619 15.8909 9.0619 16.2455 9.41476L16.3091 9.4781C16.6636 9.83095 16.6636 10.401 16.3091 10.7538L10.9273 16.1281C10.5545 16.481 9.98182 16.481 9.61818 16.1281Z" fill="#272C37"/>
</svg>

<svg width="24" height="24" xmlns="http://www.w3.org/2000/svg"><path d="m22 12.5-2.218-2.524.309-3.339-3.282-.742L15.091 3 12 4.32 8.91 3 7.19 5.886l-3.28.733.308 3.348L2 12.5l2.218 2.524-.309 3.348 3.282.742L8.909 22 12 20.67l3.09 1.321 1.72-2.886 3.28-.742-.308-3.339L22 12.5ZM9.618 16.128l-2.163-2.171a.898.898 0 0 1 0-1.276l.063-.063a.92.92 0 0 1 1.291 0l1.464 1.465 4.681-4.668a.92.92 0 0 1 1.291 0l.064.063a.898.898 0 0 1 0 1.276l-5.382 5.374a.942.942 0 0 1-1.309 0Z"/></svg>
